icons/nginx-filled.svg

<svg xmlns="http://www.w3.org/2000/svg" width="256" height="256" fill="none" viewBox="0 0 256 256"><rect width="256" height="256" fill="#009639" rx="60"/><path fill="#fff" d="M195.338 213C190.746 213 186.224 211.213 182.847 207.829L78.3239 103.307V195.34C78.3239 205.095 70.4184 213 60.662 213C50.9126 213 43 205.095 43 195.34V60.6678C43 53.5189 47.3095 47.0834 53.908 44.3496C60.4995 41.6087 68.1012 43.1204 73.1525 48.1784L177.676 152.7V60.6678C177.676 50.9122 185.582 43.0074 195.338 43.0074C205.095 43.0074 213 50.9122 213 60.6678V195.34C213 202.481 208.69 208.924 202.092 211.658C199.909 212.562 197.62 213 195.338 213Z"/></svg>

<svg xmlns="http://www.w3.org/2000/svg" width="256" height="256" fill="none"><rect width="256" height="256" fill="#009639" rx="60"/><path fill="#fff" d="M195.338 213a17.64 17.64 0 0 1-12.491-5.171L78.324 103.307v92.033c0 9.755-7.906 17.66-17.662 17.66C50.912 213 43 205.095 43 195.34V60.668c0-7.15 4.31-13.585 10.908-16.318a17.63 17.63 0 0 1 19.245 3.828L177.676 152.7V60.668c0-9.756 7.906-17.66 17.662-17.66S213 50.911 213 60.667V195.34c0 7.141-4.31 13.584-10.908 16.318a17.6 17.6 0 0 1-6.754 1.342"/></svg>
